X: 1
T: Give Us A Drink Of Water
M: 9/8
L: 1/8
R: slip jig
K: Gmaj
|: D | GBd gdc BAG | BdB cAA A2D | GBd gdc BAG | BcA AGF G2 :|
|d | {a}gfg efg fed | g2g efg afd | g2g bag fed | efg afd g2d |
gfg efg fed | {a}gfg efg a2g | bag agf ged | efg afd g2 ||
